src/assets/images/design.svg

<svg fill="none" height="41" viewBox="0 0 52 41" width="52" xmlns="http://www.w3.org/2000/svg"><g stroke="#000" stroke-linecap="round" stroke-linejoin="round" stroke-width="2"><path d="m38.5 31.4996c4.1421 0 7.5-2.2759 7.5-5.0833 0-2.8075-3.3579-5.0834-7.5-5.0834s-7.5 2.2759-7.5 5.0834c0 2.8074 3.3579 5.0833 7.5 5.0833z"/><path d="m7.31508 35.7341c-2.8325-1.9622-4.7425-4.8902-5.7275-8.784-.994999-3.9142-.724999-7.4649.8-10.6496 1.525-3.1898 3.975-5.9475 7.345-8.27061 3.37002-2.32308 7.32502-4.13021 11.87252-5.41883 4.525-1.281 8.79-1.7995 12.8-1.55042 4.02.25417 7.4475 1.36488 10.28 3.32959 2.8325 1.9647 4.7425 4.89016 5.7275 8.78397.995 3.9167.725 7.4674-.8 10.6547-1.525 3.1847-3.975 5.9399-7.345 8.2655s-7.325 4.1327-11.8725 5.4214c-4.525 1.2784-8.79 1.7969-12.8 1.5504-4.02-.2593-7.4475-1.3674-10.28002-3.3296z"/><path d="m23.495 22.6241c-1.325-.8032-3.075-1.2912-4.995-1.2912-4.1425 0-7.5 2.2748-7.5 5.0834 0 2.8085 3.3575 5.0833 7.5 5.0833 1.9175 0 3.6675-.488 4.995-1.2912"/></g></svg>

<svg width="52" height="41" viewBox="0 0 52 41" fill="none" xmlns="http://www.w3.org/2000/svg">
<path d="M38.5 31.4996C42.6421 31.4996 46 29.2237 46 26.4163C46 23.6088 42.6421 21.3329 38.5 21.3329C34.3579 21.3329 31 23.6088 31 26.4163C31 29.2237 34.3579 31.4996 38.5 31.4996Z" stroke="black" stroke-width="2" stroke-linecap="round" stroke-linejoin="round"/>
<path d="M7.31508 35.7341C4.48258 33.7719 2.57258 30.8439 1.58758 26.9501C0.592581 23.0359 0.862581 19.4852 2.38758 16.3005C3.91258 13.1107 6.36258 10.353 9.73258 8.02989C13.1026 5.70681 17.0576 3.89968 21.6051 2.61106C26.1301 1.33006 30.3951 0.81156 34.4051 1.06064C38.4251 1.31481 41.8526 2.42552 44.6851 4.39023C47.5176 6.35493 49.4276 9.28039 50.4126 13.1742C51.4076 17.0909 51.1376 20.6416 49.6126 23.8289C48.0876 27.0136 45.6376 29.7688 42.2676 32.0944C38.8976 34.42 34.9426 36.2271 30.3951 37.5158C25.8701 38.7942 21.6051 39.3127 17.5951 39.0662C13.5751 38.8069 10.1476 37.6988 7.31508 35.7366V35.7341Z" stroke="black" stroke-width="2" stroke-linecap="round" stroke-linejoin="round"/>
<path d="M23.495 22.6241C22.17 21.8209 20.42 21.3329 18.5 21.3329C14.3575 21.3329 11 23.6077 11 26.4163C11 29.2248 14.3575 31.4996 18.5 31.4996C20.4175 31.4996 22.1675 31.0116 23.495 30.2084" stroke="black" stroke-width="2" stroke-linecap="round" stroke-linejoin="round"/>
</svg>
